X:1
T:Arie Antiche,  Aria del opera  Nina, o sia La pazza per Amore
T:Il mio ben quando verrà
T:Il mio ben quando verrà.
T:Giovanni Paisiello (1741-1816) Alessandro Parisotti (1853-1913)
T:High voices Del opera Nina, o sia La pazza per Amore Giovanni Battista Lorenzi (1721-1807)
T:Aria.
T:Creative Commons copyright waiver (CC0 1.0 Universal) 
T:Creative Commons copyright waiver (CC0 1.0 Universal) 
T:Creative Commons copyright waiver (CC0 1.0 Universal) 
T:Creative Commons copyright waiver (CC0 1.0 Universal) 
T:Creative Commons copyright waiver (CC0 1.0 Universal) 
T:Creative Commons copyright waiver (CC0 1.0 Universal) 
T:Creative Commons copyright waiver (CC0 1.0 Universal) 
T:Creative Commons copyright waiver (CC0 1.0 Universal) 
C:Giovanni Paisiello (1741-1816)
Z:Giovanni Battista Lorenzi (1721-1807)
Z:Creative Commons copyright waiver (CC0 1.0 Universal)
Z:
%%score ( 1 2 ) { 3 | ( 4 5 ) }
L:1/8
Q:1/4=44
M:3/4
K:F
V:1 treble nm="Voice."
V:2 treble 
V:3 treble nm="Piano."
V:4 bass 
V:5 bass 
V:1
"^Andante. (.)" z6 | z6 | z6 | z6 | z6 | z6 | z6 | z6 |"^Voice."!p! A4[Q:1/4=50] G3/2 F/ | F4 z2 | %10
w: ||||||||Il mi- o|ben|
 !>!c2 F7/2 d/ | G4 z2 |!<(! c4- c d!<)! |!>(! B4{/c} (B>A)!>)! |!<(! A4 =B3/2 c/!<)! | %15
w: quan- do ver-|rà|a _ ve-|der la _|me- sta a-|
!>(! =B2 A2!>)! z2 |!<(! A4!<)![Q:1/4=49]!>(! c2!>)! |!<(! F4 G2 | %18
w: mi- ca?|di bei|fior s'am-|
[Q:1/4=47] (A4({cBA)} (3Bcd)!<)![Q:1/4=45] |!>(! c4!>)! z3/2 c/ | (c3 f) A z/ c/ | %21
w: man- * * te-|rà la|spiag- * gia, la|
 (3(dcB) B2 (6:4:6(e/d/c/B/!>(!A/G/) | (F4!>)! AG) |[Q:1/4=47] F2 z2 z2 |[Q:1/4=50] z6 | z6 | %26
w: * spiag- * gia a- * * * * *|pri- * *|ca.|||
[Q:1/4=52] B2 z2 z c | B2[Q:1/4=54] A2 z2 |[Q:1/4=58] z6 | z6 | B2 z2 z c | B2 A2 z2 | %32
w: Ma nol|ve- do,|||ma nol|ve- do,|
 =B4 (3(cde) | =B4 z3/2 e/ | =B4 (3(cde) | =B4 z2 | c4[Q:1/4=50] (6:4:6(d/c/=B/c/ d/c/) | A4 z A | %38
w: eil mio _ _|ben, ahi-|mè! non _ _|vien?|e il _ _ _  mio *|ben, ahi-|
 G2 z2 (T=B3/2({cB)}A/4B/4) | (d2 c4) | ((c2 e2) g2) | (g2 A2) z3/2[Q:1/4=47] A/ | %42
w: mè! non _ _|vien? _|e il mio|ben _ ahi-|
 G4[Q:1/4=44] ((gg/4)^f/4=f/4e/4) | c4 !fermata!z2 |[Q:1/4=48] A4 G2 | G2 F2 z2 | %46
w: mè! non _ _ _ _|vien?|Men- treal-|l'au- re|
[Q:1/4=47] ((c2 F2) d2) | G4 z2 |[Q:1/4=46] ((c2 (6:4:6(c/)=B/c/d/e/f/) (6:4:6(a/g/f/e/) (d/c/)) | %49
w: spie- * ghe-|rà|la _ _ _ _ _ _ _ _ _   sua *|
 c_B z2 z[Q:1/4=45] B/A/ |!<(! (A>e)!<)! !>!e2 (3(fe^G) | (!>!=B2 A2) z2 | %52
w: fiam- ma, i _|suo- * i la- * *|men- ti,|
 A2 Tc7/2({dc)} (=B/4c/4) | c2 F2 (3(GEC) | A4 (3(_Bcd) |[Q:1/4=44] B4 z3/2 c/ | %56
w: mi- ti au- *|ge- i- v'in- * *|se- gue- * *|rà più|
 (c3- c/4d/4e/4f/4) A z/ F/ | (F3 G/4A/4B/4c/4) !>!d (f/4d/4B/4G/4) | (F4 A>G) |[Q:1/4=50] F4 z2 | %60
w: dol- * * * * ci, più|dol- * * * * ci ac- * * *|cen- * *|ti.|
 z6[Q:1/4=52] | z6 |[Q:1/4=54] c2 z2 z c | c2 B2 z2 | z2 z4[Q:1/4=56] | z6 | (c2 _e3 A) | B4 z2 | %68
w: ||Ma non|l'o- do.|||E chi l'u-|di?|
 d2 z2 c3/2 c/ | c2 B2 z2 | B2 B2 A2 | G2 z2 z2 | z6 | c2 z2 z2 | f2 f3 =B | %75
w: Ah! il mio|be- ne|am- mu- to-|lì.||Ah!|am- mu- to-|
[Q:1/4=30] c4 !fermata!z2 |[Q:1/4=52] A4 G2 | G2 F2 z c | %78
w: lì.|Tu cui|stan- ca o-|
 (c>f) F2[Q:1/4=50] (6:4:6(d/e/f/^c/d/B/) | G4 z2 | c4[Q:1/4=48] (3(edc) | %81
w: ma- * i già _ _ _ _ _|fe'|il mio _ _|
 (c>=B) _B2 z[Q:1/4=44] (B/A/) | (6:4:6((A/=B/c/^c/d/^d/) e2) (6:4:6(e/f/e/f/e/^G/) | %83
w: pian- * to, e- *|co _ _ _ _ _ _ pie- * * * * *|
 (!>!=B2[Q:1/4=48] A2) z2 | A4 c2 | (c/4d/4c/4=B/4c/4A/4_B/4G/4) F2 G2 | A4 (3(Bcd) | c4 z2 | %88
w: to- sa,|ei ri-|tor- * * * * * * * na e|dol- cea _ _|te|
[Q:1/4=43] ((c2 (6:4:6(c/)f/e/f/g/f/) (6:4:6(A/c/=B/c/d/c/)) | %89
w: chie- * * * * * * * * * * * *|
 _B z[Q:1/4=41] (6:4:6(B/A/B/c/d/e/) (6:4:6(f/^c/d/A/ B/G/) |[Q:1/4=46] ((F4 AG) | %91
w: de, chie- * * * * * de _ _ _ la _|spo- * *|
[Q:1/4=50] F4) z2 | B2 z2 z B |[Q:1/4=52] c2 c z z2 |[Q:1/4=54] (d2 B) z z d | c2 z2 z2 | %96
w: sa.|Pian, mi|chia- ma;|pia- no ahi-|mè!|
[Q:1/4=55] (B2 G) z z B | A2 z2 z2 | z6 | G2[Q:1/4=50] z2 G G | F2 E2 z[Q:1/4=44] F | %101
w: pia- no, ahi-|mè!||no, non mi|chia- ma, oh|
 c2 B z"^cresc." z F |!f! d2[Q:1/4=40] d z z!p! c |[Q:1/4=46] F2 z2 z2 | z6 | z6 | z6 | z6 |] %108
w: Di- o, oh|Di- o, non|c'è.|||||
V:2
 x6 | x6 | x6 | x6 | x6 | x6 | x6 | x6 | x6 | x6 | x6 | x6 | x6 | x6 | x6 | x6 | x6 | x6 | x6 | %19
 x6 | x6 | x6 | x6 | x6 | x6 | x6 | x6 | x6 | x6 | x6 | x6 | x6 | x6 | x6 | x6 | x6 | x6 | x6 | %38
 x6 | x6 | x6 | x6 | x6 | x6 | x6 | x6 | x6 | x6 | x6 | x6 | x6 | x6 | x6 | x6 | x6 | x6 | x6 | %57
 x6 | x6 | x6 | x6 | x6 | x6 | x6 | x6 | x6 | x6 | x6 | x6 | x6 | x6 | x6 | x6 | x6 | x6 | x6 | %76
 x6 | x6 | x6 | x6 | x6 | x6 | x6 | x6 | x6 | x6 | x4 (3Bc d | x6 | x6 | x6 | x6 | x6 | x6 | x6 | %94
 x6 | x6 | x6 | x6 | x6 | G2 z G G x | x6 | x6 | x4 z c/ c/ | F2 x4 | x6 | x6 | x6 | x6 |] %108
V:3
!mp! (a4 a/g/f/g/) | (f2 a2 b2) | (!>!c'2 f2) (d'b) | g4 z2 | (c3 fAc) | %5
 c !>!B2!>(! (e/d/ c/B/A/G/)!>)! |!p! (F4 A/G/F/G/) | F4 z2 | (3CFA (3CFA (3B,EG | %9
 (3A,CF (3A,CF (3B,EG | (3CFA (3CFA (3DFB | (3CEG (3CEG (3CEG | (3CEG (3CEG (3CEG | %13
 (3B,DF (3B,DF (3B,DF | (3A,CE (3A,CE (3^G,=B,E | (3A,CE (3A,CE (3A,CE | (3CEG (3CEG (3_B,CE | %17
 (3A,CF (3A,CF (3B,EG | (3CFA (3CFA (3DFB | (3CEG (3CEG (3CEG | (3CFA (3CFA (3CFA | %21
 (3DFB (3DFB (3DFB |!>(! (3CFA (3CF!>)!A (3CEG | F2 z2 z2 | f4 (g/f/e/f/) | (f2 d2) z2 | %26
 [GB]4 ([Ac]/[GB]/[FA]/[GB]/) | [FA]2 z2 z2 | f4 (g/f/e/f/) | (f2 d) z z2 | %30
 [GB]4 ([Ac]/[GB]/[FA]/[GB]/) | [FA]2 z2 (3:2:4(g/f/ef) | d4 (3([ce][df][eg]) | %33
 [=Bd]4 (3([ce][df][eg]) | [=Bd]4 (3([ce][df][eg]) | [=Bd]4 z2 | z2 (c2 g2) | z2 (a2 c'2) | %38
 z2 (e2 d2) | z2 (c2 g2) | z2 (c2 g2) | z2 (a2 c'2) | z2 (e2 d2 | c2) z2 !fermata!z2 | %44
 (3CFA (3CFA (3_B,EG | (3A,CF (3A,CF (3B,EG | (3CFA (3CFA (3DFB | (3CEG (3CEG (3CEG | %48
 (3CEG (3CEG (3CEG | (3_B,DF (3B,DF (3B,DF | (3A,CE (3A,CE (3^G,=B,E | (3A,CE (3A,CE (3A,CE | %52
 (3CEA (3CEA (3_B,CE | (3A,CF (3A,CF (3B,EG | (3CFA (3CFA (3DFB | (3CEG (3CEG (3CEG | %56
 (3CFA (3CFA (3CFA | (3DFB (3DFB (3DFB | (3CFA (3CFA (3CEG | (3A,CF (3A,CF (3A,CF | (_e4 f/e/d/e/ | %61
 .d.f.b.f d) z | ([Ac]4- (3[Ac][Bd][c_e] | [Bd]) z z2 z2 | (_e4 f/e/d/e/ | .d.f.b.f d) z | %66
 ([Ac]4- (3[Ac][Bd][c_e] | [Ac]2) z2 z2 | (3DFB (3DFB (3CFA | (3B,DG (3B,DG (3B,DG | %70
 (3B,DG (3B,CG (3A,CF | (3z [G,CE][G,CE] (3[G,CE][G,CE][G,CE] (3[G,CE][G,CE][G,CE] | %72
 (3z [G,=B,F][G,B,F] (3[G,B,F][G,B,F][G,B,F] (3[G,B,F][G,B,F][G,B,F] | %73
 (3z [G,CE][G,CE] (3[G,CE][G,CE][G,CE] (3[G,CE][G,CE][G,CE] | %74
 (3z [G,=B,F][G,B,F] (3[G,B,F][G,B,F][G,B,F] (3[G,B,F][G,B,F][G,B,F] | [G,CE]2 z2 !fermata!z2 | %76
 (3CFA (3CFA (3_B,EG | (3A,CF (3A,CF (3B,EG | (3CFA (3CFA (3DFB | (3CEG (3CEG (3CEG | %80
 (3CEG (3CEG (3CEG | (3B,DF (3B,DF (3B,DF | (3A,CE (3A,CE (3^G,=B,E | (3A,CE (3A,CE (3A,CE | %84
 (3CEA (3CEA (3_B,CE | (3A,CF (3A,CF (3B,EG | (3CFA (3CFA (3DFB | (3CEG (3CEG (3CEG | %88
 (3CFA (3CFA (3CFA | (3DFB (3DFB (3DFB | (3CFA (3CFA (3CEG | %91
 (3z!pp! (.[fa].[fa] (3.[fa].[eg].[fa] (3.[fa].[eg].[fa]) | %92
 (3z (.[gb].[gb] (3.[gb]!ppp!.[^fa].[gb] (3.[gb].[fa].[gb]) | %93
 (3z (.[ac'].[ac'] (3.[ac'].[^g=b].[ac'] (3.[ac'].[gb].[ac']) | %94
 (3z [bd'][a^c'] (3[bd'][gb][^fa] (3[gb][a=c'][bd'] | %95
 (3z [ac'][^g=b] (3[ac'][fa][eg] (3[fa][=g_b][ac'] | %96
 (3z [gb][^fa] (3[gb][eg][^df] (3[eg][=fa][gb] | %97
 (3z!f!!>(! ([fa][eg] (3[=df][ce][Bd] (3[Ac][GB][FA])!>)! | [EG] z!p! ((!>![G,-CEG-]2 [G,DFG])) z | %99
 z2 ((!>![G,-CEG-]2 [G,DFG])) z | z2 ([C-E]2 [CF]) z | z2 ([C-GB]2 [CFA]) z | %102
 z2 (((([DFd]2 [CEG])))) z | [A,CF]2!>(! ([fa]2 [gb]2 | [ac']) z ([Ac]2 [GB]2 | %105
 [FA]) z ([fa]2 [gb]2 | [ac']) z ([FA]2 [CG]2) | [A,F]>[A,CF] [A,CF]2 z2 |] %108
V:4
 (3A,CF (3A,CF (3B,CE | (3A,CF (3A,CF (3G,CE | (3A,CF (3A,CF (3B,DF | (3CEG (3C,E,G, (3B,,E,G, | %4
(3xC,F, (3A,,C,F, (3F,,C,F, | (3D,F,B, (3D,F,B, (3D,F,B, |(3xF,A, (3C,F,A, (3C,E,B, | %7
 (3F,A,C (3F,A,C (3F,A,C | [F,,F,]6- | [F,,F,]6- | [F,,F,]4 B,,2 | C,4 z2 | [C,,C,]6 | [D,,D,]6 | %14
 E,4 E,,2 | A,,2 z2 z2 | (A,4 =G,2) | [F,,F,]6 | [F,,F,]4 B,,2 | C,4 B,,2 | A,,4 F,,2 | B,,6 | %22
 (C,4 C,,2) | (3A,,C,F, (3A,,C,F, (3A,,C,F, | (3A,CF (3A,CF (3A,CF | (3B,DF (3B,DF (3B,DF | %26
 (3B,CE (3B,CE (3B,CE | (3A,CF (3A,CF (3A,CF | (3A,CF (3A,CF (3A,CF | (3B,DF (3B,DF (3B,DF | %30
 (3B,CE (3B,CE (3B,CE | (3A,CF (3A,CF (3A,CF | (3z [=B,D][B,D] (3[B,D][B,D][B,D] (3z [CE][CE] | %33
 (3z [=B,D][B,D] (3[B,D][B,D][B,D] (3z [CE][CE] | (3z [=B,D][B,D] (3[B,D][B,D][B,D] (3z [CE][CE] | %35
 (3z [=B,D][B,D] (3G,[B,D][B,D] (3B,A,G, | (3E,G,C (3E,G,C (3E,G,C | (3F,A,C (3F,A,C (3F,A,C | %38
 (3G,CE (3G,CE (3G,=B,F | (3CEG (3CEG (3CEG | (3E,G,C (3E,G,C (3E,G,C | (3F,A,C (3F,A,C (3F,A,C | %42
 (3G,CE (3G,CE (3G,=B,F | [CE]2 z2 !fermata!z2 | [F,,F,]6 | [F,,F,]6 | [F,,F,]4 B,,2 | C,4 z2 | %48
 C,6 | D,6 | E,4 E,,2 | A,,4 z2 | A,4 =G,2 | F,6 | F,4 B,,2 | C,4 B,,2 | F,4 F,,2 | B,,6 | %58
 C,4 C,,2 | F,,4 z2 | (3A,C_E (3A,CE (3A,CE |(3xB,D (3F,B,D (3F,B,D | (3F,A,C (3F,A,C (3F,A,C | %63
 (3D,F,B, (3D,F,B, (3D,F,B, | (3F,A,C (3F,A,C (3F,A,C | (3F,B,D (3F,B,D (3F,B,D | %66
 (3F,A,C (3F,A,C (3F,A,C | (3D,F,B, (3D,F,B, (3D,F,B, | B,4 F,2 | G,4 z2 | G,2 =E,2 F,2 | %71
 C,2 z2 z2 | _D,2 z2 z2 | C,2 z2 z2 | _D,2 z2 z2 | C,2 z2 !fermata!z2 | [F,,F,]6- | [F,,F,]6 | %78
 [F,,F,]4 B,,2 | C,4 z2 | C,6 | D,6 | E,4 E,,2 | A,,4 x2 | A,4 =G,2 | F,6 | F,4 B,,2 | C,4 B,,2 | %88
 A,,4 F,,2 | B,,6 | C,4 C,,2 | F,, z z2 z2 | [F,,F,] z z2 z2 | [F,,F,] z z2 z2 | [B,,B,] z z2 z2 | %95
 [F,,F,] z z2 z2 | C, z z2 z2 | [F,,F,] z z2 z2 | z2 (!>!C,2 =B,,) z | z2 (!>!C,2 =B,,) z | %100
 z2 (_B,2 A,) z | z2 (E,2 F,) z | z2 (B,,2 C,) z | F,,2 z2 z2 | [F,,F,] z z2 z2 | [F,,F,] z z2 z2 | %106
 [F,,F,] z z2 z2 | [F,,F,]>[F,,F,] [F,,F,]2 z2 |] %108
V:5
 F,6 | F,6 | F,4 B,2 | x6 | A,,4 F,,2 | B,,6 | C,4 C,2 | x6 | x6 | x6 | x6 | x6 | x6 | x6 | x6 | %15
 x6 | x6 | x6 | x6 | x6 | x6 | x6 | x6 | F,,2 z2 z2 | F,2 z2 z2 | F,2 z2 z2 | F,2 z2 z2 | %27
 F,2 z2 z2 | F,2 z2 z2 | F,2 z2 z2 | F,2 z2 z2 | F,6 | G,4 G,2 | G,4 G,2 | G,4 G,2 | G, z G,2 F,2 | %36
 x6 | x6 | x6 | x6 | C,2 z2 z2 | F,2 z2 z2 | x6 | x6 | x6 | x6 | x6 | x6 | x6 | x6 | x6 | x6 | x6 | %53
 x6 | x6 | x6 | x6 | x6 | x6 | x6 | F,6 | F,6 | x6 | B,,2 z2 z2 | x6 | x6 | x6 | B,,2 z2 z2 | x6 | %69
 x6 | x6 | x6 | x6 | x6 | x6 | x6 | x6 | x6 | x6 | x6 | x6 | x6 | x6 | x6 | x6 | x6 | x6 | x6 | %88
 x6 | x6 | x6 | x6 | x6 | x6 | x6 | x6 | x6 | x6 | x6 | x6 | x6 | x6 | x6 | x6 | x6 | x6 | x6 | %107
 x6 |] %108

